X: 18684
T: I'm Going To Speke
R: jig
M: 6/8
K: Dmajor
c|:"D"dfd "A"ecA|"D"BdB "A"AGE|"D"DED FDG|DAD BDc|
"D"dfd "A"ecA|"D"BdB "A"AGE|"D"DED FDG|1 "A"AEC "D"D2c:|2 "A"AEC "D"D2A||
K: Bmin
|:"Bm"BFA BFA|Bde fed|BFA BFA|"F#m"cBA FAc|
"Bm"BFA BFA|Bde fed|B2B cBA|1 "F#m"FAc "Bm"B2A:|2 "F#m"FAc "Bm"B2c||

